X:1
T:Poi ch'el soave stille
T:Poi ch'el soave stille
T:Girolamo Scotto
T:Source : Madrigali a tre voci---Venetia---G.Scotto---1541. Editor : André Vierendeels (13/08/16).
T:Notes : Original clefs  C1, C3, F4 Editorial accidentals above the staff Original note values have been halved "Tertii toni" 
T:©
T:©
T:©
T:©
T:©
T:©
T:©
C:Girolamo Scotto
Z:©
%%score [ 1 2 3 ]
L:1/8
Q:1/4=127
M:2/2
K:C
V:1 treble nm="Soprano" snm="S"
V:2 treble-8 nm="Tenor" snm="T"
V:3 bass nm="Bass" snm="B"
V:1
 z8 | z8 | z8 | z4 E4 | E2 D2 E2 G2 | G2 G2 A2 c2- | c2 BA G2 A2- | A2 GF E2 B2 | c2 A4 G2 | %9
w: |||Poi|ch'el so- a- ve|stil le e'l dol-|* * * ce can-|* * * to, e'l|dol- ce can-|
 A2 E2 F2 E2- | ED/C/ D2 E2 F2 | G2 D2 A4- | A2 B2 c2 c2 | A3 B c2 A2- | AGFE ^F2 G2 | A2 c4 G2 | %16
w: to, e'l dol- ce|_ _ _ _ can- *|to, spe- rar|_ non li- ce|piu _ _ per|_ _ _ _ que- sto|bo- sco, rin-|
 G6 A2 | A2 A2 c4- | c2 B2 c2 A2- | A2 G2 A4 | z2 B2 c2 A2 | G2 c4 B2- | BA A4 G2 | A4 E4- | %24
w: co- min-|cia- te mu-|* se'il vo- stro|_ pian- to,|il vo- stro|pian- * *||to, pian-|
 E2 F2 D4 | E2 G2 G2 D2 | F4 E2 A2 | F3 G A2 B2 |"^b" c2 F2 B4 | A2 c2 c2 A2 | B2 c2 A4- | %31
w: * gi, pian-|gi col- le sa-|cra- te, col-|le sa- cra- te,|o- pa- co'e|fo- sco'et voi ca-|ve spe- lon-|
 A2 A2 G2 A2 | G3 F E2 F2- | FE E4 D2 | E4 F3 E | DC D2 C2 c2- | cBAG A2 _B2- | BAGF G2 CD | %38
w: * ch'e grot- te'o-|scu- * * *||re, u- *|* * * * lu-|* * * * * lan-|* * * * * do _|
 EF G2 A2 c2- | c2 _B2 A2 G2- |"^#" G2 F2 G4 | B4 B2 B2 | c4 B2 B2 | A2 B2 c2 A2- | A2 G2 B2 c2- | %45
w: _ _ _ ve- ni-|* te'a pian- ger|_ no- sco,|pian- ge- te|fug- gi'et guer-|ci- e'al- pe- str'e|_ du- re'al- pe-|
 c2 A4 G2 | A6 c2 | G2 G2 c2 c2 | B2 G2 A2 G2 | c4 B2 E2 | E2 F2 DEFG | AB c3 B A2- | A2 G2 A4 | %53
w: * str'e du-|re, et|pian- gen- do nar-|ra- te'a que- sti|sas- si'a que-|sti sas- * * * *||* * si,|
 z2 D2 A2 _B2 | A2 E4 F2- | F2 D2 A2 B2- | B2 c2 G2 c2- | c2 B3 A A2- | A2 G2 A4 | A8- | A8- | %61
w: le no- stre|la- gri- mo-|* se'a- spre ven-|* tu- * re,|_ a- spre- ven-|* * tu-|re.|_|
 A8- | A8 |] %63
w: ||
V:2
 z8 | z8 | B4 B2 A2 | B4 c4- | c2 B2 c2 e2 | e2 e2 f2 e2 | f2 c2 c2 c2 | d2 A2 c2 B2 | A4 z2 B2 | %9
w: ||Poi ch'el so-|a- ve|_ stil- le, e'l|dol- ce can- *|to, e'l dol- ce|can- * * *|to, e'l|
 c2 A4 G2 | A4 B2 c2 | B4 c2 A2 | d2 d2 e2 e2 | f2 f2 edcB | A2 A2 d2 c2- | c2 A2 e4- | %16
w: dol- * ce|can- * *|* to, spe-|rar non li- ce|piu per que- * * *|* sto bo- sco,|_ rin- co-|
 e2 d2 e2 e2 | f4 e3 d | ef g2 e2 f2- | f2 ed e2 f2- | fe e4 d2 | e2 A2 e2 d2- | dc d2 B4 | %23
w: * min- cia- te|mu- * *|* * * se'il vo-||* stro pian- *|to, il vo- stro|_ _ _ pian-|
 A4 c4- | c2 BA B4 | c2 c2 B4 | A2 d2 c2 A2 |"^b" d4 c2 B2 | A2 d2 d2 d2 | f2 f2 e2 f2 | %30
w: to, pian-|* * * gi|col- le sa-|cra- * te, o-|pa- co'e fo-|sco, et voi ca-|ve spe- lon- ch'e|
 d2 e2 f2 c2 | d2 f2 e2 c2- | c2 B2 c2 A2 | c3 B AG A2 | B2 c2 _B2 A2- | A2 G2 A4- | A2 c2 A2 d2- | %37
w: grot- te'os- cu- *|r'e grot- te'o- scu-|* * re, e|grot- te'o- scu- * *||* * re,|_ u- lu lan-|
 dcBA B2 A2 | c3 B A4 | e2 d4 G2 | A4 B4 | d4 d2 d2 | e4 d2 g2 | f2 d2 e2 f2 | cdef g2 e2 | %45
w: * * * * do ve-|ni- * te|a pian- ger|no- sco,|pian- ge- te|fug- gi'et guer-|ci- e'al- pe- str'e|du- * * * * *|
 fedc B4 | A2 c2 c2 A2 | B2 c2 A2 e2 | e2 e2 f2 e2- | e2 e2 d2 c2- | c2 A2 _B2 A2 | z2 A2 e2 f2 | %52
w: |re, et pian- gen-|do nar- ra- te'a|que- sti sas- si,|_ a que- sti|_ sas- * si,|le no- stre|
 e2 B2 c2 A2 | B4 c2 d2- | d2 c4 A2 | A2 B2 c2 G2 | d2 e3 dcB | A2 G2 c2 A2 | B4 A2 f2- | %59
w: la- gri- mo- se'a-|spre- ven- tu-|* re, le|no- stre la- gri-|mo- se'a- * * *|spre ven- tu- *|* re, a-|
 f2 e2 d2 e2- | edcB A4 | A8- | A8 |] %63
w: * spre ven- tu-||re.|_|
V:3
 E,4 E,2 D,2 | E,4 F,4 | E,3 F, G,2 F,2 | E,2 D,2 C,2 A,,2 | E,2 G,2 C,2 C2 | C2 C2 A,4 | %6
w: Poi ch'el so-|a- ve|stil- * le, poi|ch'el so- a- ve|stil- * le, e'l|dol- ce can-|
 F,4 E,2 F,2 | D,4 A,2 G,2 | F,4 E,4 | A,,4 D,2 E,2 | F,4 E,2 A,2 | E,2 G,2 F,2 F,2 | %12
w: * to, e'l|dol- ce can-|* to,|e'l dol- ce|can- to, spe-|rar non li- ce|
 D,2 G,2 C,2 C,2 | D,4 A,,2 A,,2 | D,6 E,2 | F,2 F,2 C,2 C2 | C2 B,2 CB,A,G, | F,2 D,2 A,4- | %18
w: piu per que- sto|bo- sco, rin-|co- min|cia- te mu- se'il|vo- stro pian- * * *|to, rin- co-|
"^#" A,2 G,2 A,2 A,2 |"^b" B,4 A,2 D,2 | A,2 G,2 F,4 | E,2 F,2 C,2 G,2 |"^b" F,2 D,2 E,4 | %23
w: * min cia- te|mu- se'il vo-|stro pian- *|* * to, il|vo- stro pian-|
 A,,4 A,4- | A,2 F,2 G,4 | C,3 D, E,F, G,2 | F,2 D,2 A,2 F,2 |"^b" B,4 A,2 G,2 | F,2 D,2 G,4 | %29
w: to, pian-|* gi, pian-||gi, col- le sa-|cra- te, o-|pa- co'e fo-|
 D,2 A,2 A,2 F,2 | G,2 C,2 D,2 F,2 | F,2 D,2 E,2 F,2 | D,4 C,2 D,2 | A,,2 E,2 F,4 | %34
w: sco, et voi ca-|ve spe- lon- ch'e|grot- te'o- scu- *|* re, e|grot- te'o- scu-|
 E,2 A,,2 D,3 C, | _B,,4 A,,4 | F,4 F,2 G,2 | D,2 G,2 E,2 F,2 | C,2 E,2 F,4 | C,2 G,2 F,2 E,2 | %40
w: |* re,|u- lu- lan-|do ve- ni- te'a|pian- ger no-|sco, a pian- ger|
 D,4 G,4 | G,4 G,2 G,2 | C,4 G,2 E,2 | F,2 G,2 C,2 D,2 | F,2 E,4 A,2- | A,2 D,2 E,4 | F,8 | %47
w: no- sco,|pian- ge te|fug- gi'et guer-|ci- e'al- pe- str'e|du- * re,|_ al- pe-|str'e|
 E,4 A,,4 | z4 z2 C,2 | C,2 A,,2 B,,2 C,2 | A,,2 D,2 D,2 D,2 | F,4 C,2 D,2 | E,4 A,,2 F,2 | %53
w: du- re,|et|pian- gen- do nar-|ra- te'a que- sti|sas- * *|* si, le|
 E,2 G,2 F,2 D,2- | D,2 A,3 G,F,E, | D,2 G,2 F,2 E,2 | D,2 C,4 A,,B,, | C,D, E,2 F,4 | %58
w: no- stre la- gri-|* mo- * * *|se'as- pre ven- tu-|||
 E,4 A,,2 D,2- | D,2 C,2 D,2 A,,2 | A,3 G, F,E, D,2- | D,2 C,2 D,4 | A,,8 |] %63
w: * re, a-|* spre ve- *|tu- * * * *||re.|

